X: 48
T: the Road to Glountane
C: by Terence "Cuz" Teahan
R: reel
%D:1964
B: PC2 p.169
S: Fiddle Hell Online 2021-10-13 Portland Collection Jam handout
Z: 2022 John Chambers <jc:trillian.mit.edu>
N: Originally composed in the keyt of D.
M: C|
L: 1/8
K: A
%%continueall
"^A"|:\
"A"E3F  A3B | ceec BAFA | "D"f2ec ABcf | "A"ecBA "D"FAAF ||\
"A"ECEF A3B | ceec BAFA | "D"f2ec ABcf | "E"ecBc "A"A4 \
"^B"::\
"A"e3f  a3f | "F#m"ecBA FAAB | "D"cBBA cBBA | "E"cBBA FAAf ||\
"A"ecef a3f | "F#m"ecBA FAAB | "D"cBBA cBBA | "E"cABc "A"A4 :|


